icon-svg/model-x-charge.svg

<svg xmlns="http://www.w3.org/2000/svg" fill="#44739e" viewBox="0 0 24 24"><path d="M21.806 15.986c-.19-.05-.2-.151-.22-4.505l-.025-4.455h-5.323v3.64l-.238.06a2.333 2.333 0 0 0-1.132 1.308c-.412 1.038-.671 1.475-.964 1.627-.487.252-.671.2-.742-.217a2.1 2.1 0 0 0-.627-1.438 1.98 1.98 0 0 1-.393-.461c0-.043.155-.078.345-.078.377 0 .536-.2.343-.434a.794.794 0 0 0-.83-.157c-.1.086-.193 0-.425-.406a4.2 4.2 0 0 0-.6-.808c-.29-.274-.37-.3-1.255-.342l-.945-.049.013-.51c.023-.879.074-.972.574-1.047a7.45 7.45 0 0 1 3.046.548 4.7 4.7 0 0 0 1.2.323c.224-.139.016-.369-.542-.6a8.306 8.306 0 0 0-4.08-.685c-.445.093-.6.383-.706 1.315l-.068.606h-.738l-.066-.511c-.124-.974-.222-1.212-.553-1.349a5.344 5.344 0 0 0-2.718.139 4.73 4.73 0 0 0-2.13.888c-.056.275.229.269.968-.023a8.1 8.1 0 0 1 2.854-.645c.64-.009.785.019.9.171a2.54 2.54 0 0 1 .2 1.324 1.9 1.9 0 0 1-.834.105 4.28 4.28 0 0 0-1.023.1 2.23 2.23 0 0 0-.992 1.1c-.207.408-.259.453-.427.363a.81.81 0 0 0-.8.138c-.182.272-.077.448.267.448.188 0 .342.026.342.057a2.65 2.65 0 0 1-.329.464c-.579.716-.586.749-.63 2.819a21.3 21.3 0 0 0 .023 2.177.566.566 0 0 0 .28.343 2.72 2.72 0 0 0 .838.064c.693-.032.892-.183.892-.677 0-.28 0-.28.463-.209a54.9 54.9 0 0 0 5.607 0l.555-.074.03.37c.038.458.3.615 1.036.617.42 0 .562-.043.756-.238.232-.231.24-.286.24-1.6v-1.36l.317-.06c.751-.142 1.132-.6 1.642-1.96.207-.551.68-1.125.928-1.125.116 0 .139.389.139 2.4 0 2.339 0 2.4-.21 2.57a.352.352 0 0 0-.145.431l.066.26H22v-.35c0-.269-.046-.363-.194-.402M4.715 10.373c.21-.331.369-.468.61-.525a33 33 0 0 1 5.137.047 2.81 2.81 0 0 1 .8 1c0 .046-1.538.083-3.417.083S4.43 10.944 4.43 10.9a2.63 2.63 0 0 1 .285-.527m4.611 3a2.384 2.384 0 0 0-1.227.255c-.281.221-.25.222-.52 0-.169-.141-.46-.2-1.269-.254-.879-.06-1.01-.089-.806-.178a24.17 24.17 0 0 1 4.628 0c.151.082-.002.116-.806.174zm-5.175-.063c-.876-.028-.99-.07-.99-.363 0-.43.132-.489.812-.359a3.93 3.93 0 0 1 .842.244l.238.129-.225.182a.97.97 0 0 1-.677.164ZM4.723 16a3.86 3.86 0 0 1 .406-.533 1.786 1.786 0 0 1 .757-.586 12.85 12.85 0 0 1 2.179-.081l1.83.032.557.558a2.2 2.2 0 0 1 .506.609A47.65 47.65 0 0 1 4.723 16m7.443-2.736c-.732.121-1.489 0-1.489-.242s1.5-.645 1.733-.455a.55.55 0 0 1 .122.369c0 .229-.047.27-.366.323zm8.565-2.964h-3.57l.007-2.054h3.563z"/></svg>

<?xml version="1.0" encoding="UTF-8"?>
<svg width="33px" height="32px" viewBox="0 0 24 24" fill="#44739e" version="1.1" xmlns="http://www.w3.org/2000/svg" xmlns:xlink="http://www.w3.org/1999/xlink">
            <path d="m 21.806,15.986 c -0.19,-0.05 -0.2,-0.151 -0.22,-4.505 L 21.561,7.026 h -5.323 v 3.64 L 16,10.726 a 2.333,2.333 0 0 0 -1.132,1.308 c -0.412,1.038 -0.671,1.475 -0.964,1.627 -0.487,0.252 -0.671,0.2 -0.742,-0.217 a 2.1,2.1 0 0 0 -0.627,-1.438 1.978,1.978 0 0 1 -0.393,-0.461 c 0,-0.043 0.155,-0.078 0.345,-0.078 0.377,0 0.536,-0.2 0.343,-0.434 A 0.794,0.794 0 0 0 12,10.876 c -0.1,0.086 -0.193,0 -0.425,-0.406 a 4.19,4.19 0 0 0 -0.6,-0.808 C 10.685,9.388 10.605,9.362 9.72,9.32 L 8.775,9.271 8.788,8.761 C 8.811,7.882 8.862,7.789 9.362,7.714 a 7.453,7.453 0 0 1 3.046,0.548 4.7,4.7 0 0 0 1.2,0.323 c 0.224,-0.139 0.016,-0.369 -0.542,-0.6 A 8.306,8.306 0 0 0 8.986,7.3 C 8.541,7.393 8.386,7.683 8.28,8.615 L 8.212,9.221 H 7.474 L 7.408,8.71 C 7.284,7.736 7.186,7.498 6.855,7.361 A 5.344,5.344 0 0 0 4.137,7.5 4.73,4.73 0 0 0 2.007,8.388 C 1.951,8.663 2.236,8.657 2.975,8.365 A 8.1,8.1 0 0 1 5.829,7.72 c 0.64,-0.009 0.785,0.019 0.9,0.171 a 2.54,2.54 0 0 1 0.2,1.324 1.9,1.9 0 0 1 -0.834,0.105 4.278,4.278 0 0 0 -1.023,0.1 2.231,2.231 0 0 0 -0.992,1.1 c -0.207,0.408 -0.259,0.453 -0.427,0.363 a 0.81,0.81 0 0 0 -0.8,0.138 c -0.182,0.272 -0.077,0.448 0.267,0.448 0.188,0 0.342,0.026 0.342,0.057 A 2.645,2.645 0 0 1 3.133,11.99 c -0.579,0.716 -0.586,0.749 -0.63,2.819 a 21.322,21.322 0 0 0 0.023,2.177 0.566,0.566 0 0 0 0.28,0.343 v 0 a 2.721,2.721 0 0 0 0.838,0.064 c 0.693,-0.032 0.892,-0.183 0.892,-0.677 0,-0.28 0,-0.28 0.463,-0.209 a 54.884,54.884 0 0 0 5.607,0 l 0.555,-0.074 0.03,0.37 c 0.038,0.458 0.3,0.615 1.036,0.617 0.42,0 0.562,-0.043 0.756,-0.238 0.232,-0.231 0.24,-0.286 0.24,-1.6 v -1.36 l 0.317,-0.06 c 0.751,-0.142 1.132,-0.6 1.642,-1.96 0.207,-0.551 0.68,-1.125 0.928,-1.125 0.116,0 0.139,0.389 0.139,2.4 0,2.339 0,2.4 -0.21,2.57 a 0.352,0.352 0 0 0 -0.145,0.431 l 0.066,0.26 H 22 v -0.35 c 0,-0.269 -0.046,-0.363 -0.194,-0.402 z M 4.715,10.373 c 0.21,-0.331 0.369,-0.468 0.61,-0.525 a 32.978,32.978 0 0 1 5.137,0.047 2.811,2.811 0 0 1 0.8,1 c 0,0.046 -1.538,0.083 -3.417,0.083 -1.879,0 -3.415,-0.034 -3.415,-0.078 a 2.625,2.625 0 0 1 0.285,-0.527 z m 4.611,3 a 2.384,2.384 0 0 0 -1.227,0.255 v 0 c -0.281,0.221 -0.25,0.222 -0.52,0 C 7.41,13.487 7.119,13.428 6.31,13.374 5.431,13.314 5.3,13.285 5.504,13.196 a 24.172,24.172 0 0 1 4.628,0 c 0.151,0.082 -0.002,0.116 -0.806,0.174 z M 4.151,13.31 c -0.876,-0.028 -0.99,-0.07 -0.99,-0.363 0,-0.43 0.132,-0.489 0.812,-0.359 a 3.931,3.931 0 0 1 0.842,0.244 l 0.238,0.129 -0.225,0.182 A 0.971,0.971 0 0 1 4.151,13.307 Z M 4.723,16 A 3.856,3.856 0 0 1 5.129,15.467 1.786,1.786 0 0 1 5.886,14.881 12.85,12.85 0 0 1 8.065,14.8 l 1.83,0.032 0.557,0.558 A 2.2,2.2 0 0 1 10.958,15.999 47.653,47.653 0 0 1 4.723,16 Z m 7.443,-2.736 c -0.732,0.121 -1.489,0 -1.489,-0.242 0,-0.242 1.5,-0.645 1.733,-0.455 a 0.551,0.551 0 0 1 0.122,0.369 c 0,0.229 -0.047,0.27 -0.366,0.323 z M 20.731,10.3 h -3.57 l 0.007,-2.054 h 3.563 z"/>

</svg>
